svg/u1f468_1f3ff_200d_1f4bc.svg

<svg viewBox="0 0 128 128" xmlns="http://www.w3.org/2000/svg">
  <g id="XMLID_116_">
    <linearGradient id="SVGID_1_" gradientTransform="matrix(1 0 0 -1 0 128)" gradientUnits="userSpaceOnUse" x1="64" x2="64" y1="32.3122" y2="4.3012">
      <stop offset="3.200000e-03" stop-color="#E3F2FD"/>
      <stop offset="0.2252" stop-color="#D6ECFC"/>
      <stop offset="0.6348" stop-color="#B4DBFB"/>
      <stop offset="1" stop-color="#90CAF9"/>
    </linearGradient>
    <path d="M64.14,96c-0.05,0-0.09,0-0.14,0c-25.65,0.03-52,7.1-52,24.99v2.95h1.5H15h98h1.5h1.5v-2.95 C116,104.12,89.9,96,64.14,96z" fill="url(#SVGID_1_)"/>
  </g>
  <polygon fill="#1565C0" points="66.28,113.27 68.65,108.62 64,103.15 59.35,108.62 61.72,113.27 58.85,123.96 64,123.96 69.15,123.96 "/>
  <g>
    <linearGradient id="SVGID_2_" gradientTransform="matrix(1 0 0 -1 0 128)" gradientUnits="userSpaceOnUse" x1="64" x2="64" y1="16.3189" y2="34.5524">
      <stop offset="0.5" stop-color="#F5F5F5"/>
      <stop offset="1" stop-color="#DADADA"/>
    </linearGradient>
    <polygon fill="url(#SVGID_2_)" points="75.02,91.38 52.98,91.38 46.39,98.5 55.87,113.19 64,103.15 72.13,113.19 81.61,98.5 "/>
  </g>
  <g id="neck">
    <path d="M64,84.33h-9.08v9.98c0,4.51,3.7,8.17,8.26,8.17h1.65c4.56,0,8.26-3.66,8.26-8.17v-9.98L64,84.33z" fill="#3C2B24"/>
  </g>
  <g id="face">
    <g id="ears">
      <path d="M91.33,50.43h-7.37H44.04h-7.37c-5.89,0-10.71,5.14-10.71,11.41s4.82,11.41,10.71,11.41h7.37h39.91 h7.37c5.89,0,10.71-5.14,10.71-11.41S97.22,50.43,91.33,50.43z" fill="#3C2B24"/>
    </g>
    <g id="head">
      <path d="M64,11.07L64,11.07L64,11.07c-17.4,0-33.52,18.61-33.52,45.4c0,26.64,16.61,39.81,33.52,39.81 S97.52,83.1,97.52,56.46C97.52,29.68,81.4,11.07,64,11.07z" fill="#70534A"/>
    </g>
    <g id="eyes">
      <ellipse cx="47.56" cy="58.81" fill="#1A1717" rx="4.93" ry="5.1"/>
      <ellipse cx="80.44" cy="58.81" fill="#1A1717" rx="4.93" ry="5.1"/>
    </g>
    <path id="nose" d="M67.86,68.06c-0.11-0.04-0.21-0.07-0.32-0.08h-7.08c-0.11,0.01-0.22,0.04-0.32,0.08 c-0.64,0.26-0.99,0.92-0.69,1.63c0.3,0.71,1.71,2.69,4.55,2.69s4.25-1.99,4.55-2.69C68.85,68.98,68.5,68.32,67.86,68.06z" fill="#33251F"/>
    <path id="mouth" d="M72.42,76.14c-3.18,1.89-13.63,1.89-16.81,0c-1.83-1.09-3.7,0.58-2.94,2.24 c0.75,1.63,6.44,5.42,11.37,5.42s10.55-3.79,11.3-5.42C76.09,76.72,74.25,75.05,72.42,76.14z" fill="#1A1717"/>
  </g>
  <g id="hairGroup">
    <path id="hair_7_" d="M64,4.03L64,4.03c-0.01,0-0.01,0-0.02,0s-0.01,0-0.02,0l0,0 C18.53,4.27,27.84,56.17,27.84,56.17s2.04,5.35,2.97,7.71c0.13,0.34,0.63,0.3,0.71-0.05c0.97-4.34,4.46-19.73,6.22-24.41 c1.04-2.76,3.9-4.36,6.79-3.83c4.45,0.81,11.55,1.81,19.37,1.81c0.03,0,0.06,0,0.08,0s0.06,0,0.08,0c7.82,0,14.92-1,19.37-1.81 c2.9-0.53,5.76,1.08,6.79,3.83c1.75,4.66,5.22,19.96,6.2,24.36c0.08,0.36,0.58,0.39,0.71,0.05l2.98-7.67 C100.13,56.17,109.44,4.27,64,4.03z" fill="#232020"/>
    <radialGradient id="hairHighlights_1_" cx="63.9835" cy="80.9011" gradientTransform="matrix(1 0 0 -1.1282 0 138.3704)" gradientUnits="userSpaceOnUse" r="38.0925">
      <stop offset="0.7945" stop-color="#444140" stop-opacity="0"/>
      <stop offset="1" stop-color="#444140"/>
    </radialGradient>
    <path id="hairHighlights" d="M100.13,56.17c0,0,9.31-51.9-36.13-52.14v0 c-0.01,0-0.01,0-0.02,0h0c-0.01,0-0.01,0-0.02,0l0,0c-0.71,0-1.4,0.02-2.08,0.05c-1.35,0.06-2.66,0.16-3.92,0.31 c-0.01,0-0.03,0-0.04,0c-0.09,0.01-0.17,0.03-0.26,0.04C19.42,9.24,27.84,56.17,27.84,56.17l2.98,7.68 c0.13,0.34,0.62,0.31,0.7-0.05c0.98-4.39,4.46-19.71,6.22-24.37c1.04-2.76,3.9-4.36,6.79-3.83c4.45,0.81,11.55,1.81,19.37,1.81 c0.03,0,0.06,0,0.08,0s0.06,0,0.08,0c7.82,0,14.92-1,19.37-1.81c2.9-0.53,5.76,1.08,6.79,3.83c1.76,4.68,5.25,20.1,6.21,24.42 c0.08,0.36,0.57,0.39,0.7,0.05C98.08,61.54,100.13,56.17,100.13,56.17z" fill="url(#hairHighlights_1_)"/>
  </g>
  <g id="eyebrows_1_">
    <path d="M40.01,50.72c2.99-4.23,9.78-4.63,13.67-1.48c0.62,0.5,1.44,1.2,1.68,1.98 c0.4,1.27-0.82,2.26-2.01,1.96c-0.76-0.19-1.47-0.6-2.22-0.83c-1.37-0.43-2.36-0.55-3.59-0.55c-1.82-0.01-2.99,0.22-4.72,0.92 c-0.71,0.29-1.29,0.75-2.1,0.41C39.79,52.75,39.44,51.56,40.01,50.72z" fill="#1A1717"/>
    <path d="M86.07,53.13c-0.29-0.13-0.57-0.29-0.86-0.41c-1.78-0.74-2.79-0.93-4.72-0.92 c-1.7,0.01-2.71,0.24-4.04,0.69c-0.81,0.28-1.84,0.98-2.74,0.71c-1.32-0.4-1.28-1.84-0.56-2.76c0.86-1.08,2.04-1.9,3.29-2.44 c2.9-1.26,6.44-1.08,9.17,0.55c0.89,0.53,1.86,1.26,2.4,2.18C88.79,52.03,87.61,53.76,86.07,53.13z" fill="#1A1717"/>
  </g>
</svg>

<svg viewBox="0 0 128 128" xmlns="http://www.w3.org/2000/svg">
  <defs>
    <linearGradient id="SVGID_1_" gradientTransform="matrix(1 0 0 -1 0 0)" gradientUnits="userSpaceOnUse" x1="64" x2="64" y1="-95.6878" y2="-123.6988">
      <stop offset="3.200000e-03" stop-color="#E3F2FD"/>
      <stop offset="0.2252" stop-color="#D6ECFC"/>
      <stop offset="0.6348" stop-color="#B4DBFB"/>
      <stop offset="1" stop-color="#90CAF9"/>
    </linearGradient>
    <linearGradient id="SVGID_2_" gradientTransform="matrix(1 0 0 -1 0 0)" gradientUnits="userSpaceOnUse" x1="64" x2="64" y1="-111.6811" y2="-93.4476">
      <stop offset="0.5" stop-color="#F5F5F5"/>
      <stop offset="1" stop-color="#DADADA"/>
    </linearGradient>
    <radialGradient id="hairHighlights_1_" cx="63.9835" cy="-41.745948" gradientTransform="matrix(1 0 0 -1.1282 0 0)" gradientUnits="userSpaceOnUse" r="38.0925">
      <stop offset="0.7945" stop-color="#444140" stop-opacity="0"/>
      <stop offset="1" stop-color="#444140"/>
    </radialGradient>
  </defs>
  <path d="M64.14,96 C64.09,96 64.05,96 64,96 C38.35,96.03 12,103.1 12,120.99 L12,123.94 L13.5,123.94 L15,123.94 L113,123.94 L114.5,123.94 L116,123.94 L116,120.99 C116,104.12 89.9,96 64.14,96 Z" fill="url(#SVGID_1_)"/>
  <path d="M66.28,113.27 L68.65,108.62 L64,103.15 L59.35,108.62 L61.72,113.27 L58.85,123.96 L64,123.96 L69.15,123.96 Z" fill="#1565C0"/>
  <path d="M75.02,91.38 L52.98,91.38 L46.39,98.5 L55.87,113.19 L64,103.15 L72.13,113.19 L81.61,98.5 Z" fill="url(#SVGID_2_)"/>
  <path d="M64,84.33 L54.92,84.33 L54.92,94.31 C54.92,98.82 58.62,102.48 63.18,102.48 L64.83,102.48 C69.39,102.48 73.09,98.82 73.09,94.31 L73.09,84.33 L64,84.33 Z" fill="#3C2B24"/>
  <path d="M91.33,50.43 L83.96,50.43 L44.04,50.43 L36.67,50.43 C30.78,50.43 25.96,55.57 25.96,61.84 C25.96,68.11 30.78,73.25 36.67,73.25 L44.04,73.25 L83.95,73.25 L91.32,73.25 C97.21,73.25 102.03,68.11 102.03,61.84 C102.03,55.57 97.22,50.43 91.33,50.43 Z" fill="#3C2B24"/>
  <path d="M64,11.07 L64,11.07 L64,11.07 C46.6,11.07 30.48,29.68 30.48,56.47 C30.48,83.11 47.09,96.28 64,96.28 C80.91,96.28 97.52,83.1 97.52,56.46 C97.52,29.68 81.4,11.07 64,11.07 Z" fill="#70534A"/>
  <path d="M52.49,58.81 A4.93 5.1 0 1 1 42.63,58.81 A4.93 5.1 0 1 1 52.49,58.81 Z" fill="#1A1717"/>
  <path d="M85.37,58.81 A4.93 5.1 0 1 1 75.51,58.81 A4.93 5.1 0 1 1 85.37,58.81 Z" fill="#1A1717"/>
  <path id="nose" d="M67.86,68.06 C67.75,68.02 67.65,67.99 67.54,67.98 L60.46,67.98 C60.35,67.99 60.24,68.02 60.14,68.06 C59.5,68.32 59.15,68.98 59.45,69.69 C59.75,70.4 61.16,72.38 64,72.38 C66.84,72.38 68.25,70.39 68.55,69.69 C68.85,68.98 68.5,68.32 67.86,68.06 Z" fill="#33251F"/>
  <path id="mouth" d="M72.42,76.14 C69.24,78.03 58.79,78.03 55.61,76.14 C53.78,75.05 51.91,76.72 52.67,78.38 C53.42,80.01 59.11,83.8 64.04,83.8 C68.97,83.8 74.59,80.01 75.34,78.38 C76.09,76.72 74.25,75.05 72.42,76.14 Z" fill="#1A1717"/>
  <path id="hair_7_" d="M64,4.03 L64,4.03 C63.99,4.03 63.99,4.03 63.98,4.03 C63.97,4.03 63.97,4.03 63.96,4.03 L63.96,4.03 C18.53,4.27 27.84,56.17 27.84,56.17 C27.84,56.17 29.88,61.52 30.81,63.88 C30.94,64.22 31.44,64.18 31.52,63.83 C32.49,59.49 35.98,44.1 37.74,39.42 C38.78,36.66 41.64,35.06 44.53,35.59 C48.98,36.4 56.08,37.4 63.9,37.4 C63.93,37.4 63.96,37.4 63.98,37.4 C64,37.4 64.04,37.4 64.06,37.4 C71.88,37.4 78.98,36.4 83.43,35.59 C86.33,35.06 89.19,36.67 90.22,39.42 C91.97,44.08 95.44,59.38 96.42,63.78 C96.5,64.14 97,64.17 97.13,63.83 L100.11,56.16 C100.13,56.17 109.44,4.27 64,4.03 Z" fill="#232020"/>
  <path id="hairHighlights" d="M100.13,56.17 C100.13,56.17 109.44,4.27 64,4.03 L64,4.03 C63.99,4.03 63.99,4.03 63.98,4.03 L63.98,4.03 C63.97,4.03 63.97,4.03 63.96,4.03 L63.96,4.03 C63.25,4.03 62.56,4.05 61.88,4.08 C60.53,4.14 59.22,4.24 57.96,4.39 C57.95,4.39 57.93,4.39 57.92,4.39 C57.83,4.4 57.75,4.42 57.66,4.43 C19.42,9.24 27.84,56.17 27.84,56.17 L30.82,63.85 C30.95,64.19 31.44,64.16 31.52,63.8 C32.5,59.41 35.98,44.09 37.74,39.43 C38.78,36.67 41.64,35.07 44.53,35.6 C48.98,36.41 56.08,37.41 63.9,37.41 C63.93,37.41 63.96,37.41 63.98,37.41 C64,37.41 64.04,37.41 64.06,37.41 C71.88,37.41 78.98,36.41 83.43,35.6 C86.33,35.07 89.19,36.68 90.22,39.43 C91.98,44.11 95.47,59.53 96.43,63.85 C96.51,64.21 97,64.24 97.13,63.9 C98.08,61.54 100.13,56.17 100.13,56.17 Z" fill="url(#hairHighlights_1_)"/>
  <path d="M40.01,50.72 C43,46.49 49.79,46.09 53.68,49.24 C54.3,49.74 55.12,50.44 55.36,51.22 C55.76,52.49 54.54,53.48 53.35,53.18 C52.59,52.99 51.88,52.58 51.13,52.35 C49.76,51.92 48.77,51.8 47.54,51.8 C45.72,51.79 44.55,52.02 42.82,52.72 C42.11,53.01 41.53,53.47 40.72,53.13 C39.79,52.75 39.44,51.56 40.01,50.72 Z" fill="#1A1717"/>
  <path d="M86.07,53.13 C85.78,53 85.5,52.84 85.21,52.72 C83.43,51.98 82.42,51.79 80.49,51.8 C78.79,51.81 77.78,52.04 76.45,52.49 C75.64,52.77 74.61,53.47 73.71,53.2 C72.39,52.8 72.43,51.36 73.15,50.44 C74.01,49.36 75.19,48.54 76.44,48 C79.34,46.74 82.88,46.92 85.61,48.55 C86.5,49.08 87.47,49.81 88.01,50.73 C88.79,52.03 87.61,53.76 86.07,53.13 Z" fill="#1A1717"/>
</svg>
